src/images/logo.svg

<svg width="40" height="40" viewBox="0 0 40 40" fill="none" xmlns="http://www.w3.org/2000/svg">
<g filter="url(#filter0_f)">
<path d="M30.6668 29.8193C31.1755 29.219 30.7267 28.3497 29.9399 28.3376C22.8833 28.2287 16.8898 28.3646 9.59712 28.809C8.81186 28.8568 8.40263 29.7452 8.93765 30.322C11.6102 33.2032 15.3896 35 19.5794 35C24.0077 35 27.9776 32.9927 30.6668 29.8193Z" stroke="#4C4CFF" stroke-linecap="round" stroke-linejoin="round"/>
<path d="M7.07348 12.1598C6.67114 12.8297 7.24275 13.6145 8.01852 13.5208C16.1184 12.5428 22.2272 12.2462 30.6868 12.7494C31.47 12.796 31.9955 11.9733 31.5482 11.3287C28.8908 7.49901 24.5205 5 19.5794 5C14.2892 5 9.65327 7.86456 7.07348 12.1598Z" stroke="#4C4CFF" stroke-linecap="round" stroke-linejoin="round"/>
</g>
<g filter="url(#filter1_f)">
<path d="M30.6668 29.8193C31.1755 29.219 30.7267 28.3497 29.9399 28.3376C22.8833 28.2287 16.8898 28.3646 9.59712 28.809C8.81186 28.8568 8.40263 29.7452 8.93765 30.322C11.6102 33.2032 15.3896 35 19.5794 35C24.0077 35 27.9776 32.9927 30.6668 29.8193Z" stroke="#4C4CFF" stroke-linecap="round" stroke-linejoin="round"/>
<path d="M7.07348 12.1598C6.67114 12.8297 7.24275 13.6145 8.01852 13.5208C16.1184 12.5428 22.2272 12.2462 30.6868 12.7494C31.47 12.796 31.9955 11.9733 31.5482 11.3287C28.8908 7.49901 24.5205 5 19.5794 5C14.2892 5 9.65327 7.86456 7.07348 12.1598Z" stroke="#4C4CFF" stroke-linecap="round" stroke-linejoin="round"/>
</g>
<path d="M30.6668 29.8193C31.1755 29.219 30.7267 28.3497 29.9399 28.3376C22.8833 28.2287 16.8898 28.3646 9.59712 28.809C8.81186 28.8568 8.40263 29.7452 8.93765 30.322C11.6102 33.2032 15.3896 35 19.5794 35C24.0077 35 27.9776 32.9927 30.6668 29.8193Z" stroke="#4C4CFF" stroke-linecap="round" stroke-linejoin="round"/>
<path d="M7.07348 12.1598C6.67114 12.8297 7.24275 13.6145 8.01852 13.5208C16.1184 12.5428 22.2272 12.2462 30.6868 12.7494C31.47 12.796 31.9955 11.9733 31.5482 11.3287C28.8908 7.49901 24.5205 5 19.5794 5C14.2892 5 9.65327 7.86456 7.07348 12.1598Z" stroke="#4C4CFF" stroke-linecap="round" stroke-linejoin="round"/>
<path d="M30.6668 29.8193C31.1755 29.219 30.7267 28.3497 29.9399 28.3376C22.8833 28.2287 16.8898 28.3646 9.59712 28.809C8.81186 28.8568 8.40263 29.7452 8.93765 30.322C11.6102 33.2032 15.3896 35 19.5794 35C24.0077 35 27.9776 32.9927 30.6668 29.8193Z" stroke="white" stroke-width="0.5" stroke-linecap="round" stroke-linejoin="round"/>
<path d="M7.07348 12.1598C6.67114 12.8297 7.24275 13.6145 8.01852 13.5208C16.1184 12.5428 22.2272 12.2462 30.6868 12.7494C31.47 12.796 31.9955 11.9733 31.5482 11.3287C28.8908 7.49901 24.5205 5 19.5794 5C14.2892 5 9.65327 7.86456 7.07348 12.1598Z" stroke="white" stroke-width="0.5" stroke-linecap="round" stroke-linejoin="round"/>
<g filter="url(#filter2_f)">
<path d="M34.0743 22.3125C34.2319 21.2661 33.417 20.3644 32.3622 20.2793C23.3161 19.5501 16.1297 19.4321 6.79862 19.9169C5.74046 19.9719 4.89937 20.8523 5.02882 21.904C5.13156 22.7387 5.30136 23.552 5.53252 24.3381C5.77115 25.1496 6.55924 25.6496 7.40462 25.6202C16.2597 25.3127 23.205 25.2892 31.7978 25.5205C32.6435 25.5432 33.4275 25.037 33.6597 24.2235C33.8371 23.6023 33.9762 22.9643 34.0743 22.3125Z" stroke="#E33CD5" stroke-linecap="round" stroke-linejoin="round"/>
</g>
<g filter="url(#filter3_f)">
<path d="M34.0743 22.3125C34.2319 21.2661 33.417 20.3644 32.3622 20.2793C23.3161 19.5501 16.1297 19.4321 6.79862 19.9169C5.74046 19.9719 4.89937 20.8523 5.02882 21.904C5.13156 22.7387 5.30136 23.552 5.53252 24.3381C5.77115 25.1496 6.55924 25.6496 7.40462 25.6202C16.2597 25.3127 23.205 25.2892 31.7978 25.5205C32.6435 25.5432 33.4275 25.037 33.6597 24.2235C33.8371 23.6023 33.9762 22.9643 34.0743 22.3125Z" stroke="#E33CD5" stroke-linecap="round" stroke-linejoin="round"/>
</g>
<path d="M34.0743 22.3125C34.2319 21.2661 33.417 20.3644 32.3622 20.2793C23.3161 19.5501 16.1297 19.4321 6.79862 19.9169C5.74046 19.9719 4.89937 20.8523 5.02882 21.904C5.13156 22.7387 5.30136 23.552 5.53252 24.3381C5.77115 25.1496 6.55924 25.6496 7.40462 25.6202C16.2597 25.3127 23.205 25.2892 31.7978 25.5205C32.6435 25.5432 33.4275 25.037 33.6597 24.2235C33.8371 23.6023 33.9762 22.9643 34.0743 22.3125Z" stroke="#E33CD5" stroke-linecap="round" stroke-linejoin="round"/>
<path d="M34.0743 22.3125C34.2319 21.2661 33.417 20.3644 32.3622 20.2793C23.3161 19.5501 16.1297 19.4321 6.79862 19.9169C5.74046 19.9719 4.89937 20.8523 5.02882 21.904C5.13156 22.7387 5.30136 23.552 5.53252 24.3381C5.77115 25.1496 6.55924 25.6496 7.40462 25.6202C16.2597 25.3127 23.205 25.2892 31.7978 25.5205C32.6435 25.5432 33.4275 25.037 33.6597 24.2235C33.8371 23.6023 33.9762 22.9643 34.0743 22.3125Z" stroke="white" stroke-width="0.5" stroke-linecap="round" stroke-linejoin="round"/>
<g filter="url(#filter4_f)">
<path d="M4.91321 16.625C6.86833 15.125 8.82345 15.125 10.7786 16.625C12.7337 18.125 14.6888 18.125 16.6439 16.625C18.5991 15.125 20.5542 15.125 22.5093 16.625C24.4644 18.125 26.4196 18.125 28.3747 16.625C30.3298 15.125 32.2849 15.125 34.2401 16.625" stroke="#00CCCC" stroke-linecap="round" stroke-linejoin="round"/>
</g>
<g filter="url(#filter5_f)">
<path d="M4.91321 16.625C6.86833 15.125 8.82345 15.125 10.7786 16.625C12.7337 18.125 14.6888 18.125 16.6439 16.625C18.5991 15.125 20.5542 15.125 22.5093 16.625C24.4644 18.125 26.4196 18.125 28.3747 16.625C30.3298 15.125 32.2849 15.125 34.2401 16.625" stroke="#00CCCC" stroke-linecap="round" stroke-linejoin="round"/>
</g>
<path d="M4.91321 16.625C6.86833 15.125 8.82345 15.125 10.7786 16.625C12.7337 18.125 14.6888 18.125 16.6439 16.625C18.5991 15.125 20.5542 15.125 22.5093 16.625C24.4644 18.125 26.4196 18.125 28.3747 16.625C30.3298 15.125 32.2849 15.125 34.2401 16.625" stroke="#00CCCC" stroke-linecap="round" stroke-linejoin="round"/>
<path d="M4.91321 16.625C6.86833 15.125 8.82345 15.125 10.7786 16.625C12.7337 18.125 14.6888 18.125 16.6439 16.625C18.5991 15.125 20.5542 15.125 22.5093 16.625C24.4644 18.125 26.4196 18.125 28.3747 16.625C30.3298 15.125 32.2849 15.125 34.2401 16.625" stroke="white" stroke-width="0.5" stroke-linecap="round" stroke-linejoin="round"/>
<g filter="url(#filter6_f)">
<ellipse rx="0.736837" ry="0.559799" transform="matrix(0.881086 0.472957 0.45642 -0.889764 14.616 31.2359)" stroke="#4C4CFF"/>
<ellipse rx="1.10147" ry="0.748885" transform="matrix(0.964427 0.264348 -0.25339 0.967364 25.9608 9.76562)" stroke="#4C4CFF"/>
<ellipse rx="0.734315" ry="0.561663" transform="matrix(0.964428 -0.264347 -0.25339 -0.967364 24.093 31.2374)" stroke="#4C4CFF"/>
<ellipse cx="18.4769" cy="10.25" rx="1.09975" ry="0.75" transform="rotate(180 18.4769 10.25)" stroke="#4C4CFF"/>
<ellipse rx="1.10147" ry="0.748885" transform="matrix(0.964427 0.264349 -0.253389 0.967364 21.5618 7.51562)" stroke="#4C4CFF"/>
<ellipse rx="0.733173" ry="0.5625" transform="matrix(1 0 0 -1 19.5767 32.5625)" stroke="#4C4CFF"/>
<ellipse rx="1.10526" ry="0.746399" transform="matrix(0.881086 -0.472956 0.456421 0.889764 13.5594 9.18679)" stroke="#4C4CFF"/>
</g>
<g filter="url(#filter7_f)">
<ellipse rx="0.736837" ry="0.559799" transform="matrix(0.881086 0.472957 0.45642 -0.889764 14.616 31.2359)" stroke="#4C4CFF"/>
<ellipse rx="1.10147" ry="0.748885" transform="matrix(0.964427 0.264348 -0.25339 0.967364 25.9608 9.76562)" stroke="#4C4CFF"/>
<ellipse rx="0.734315" ry="0.561663" transform="matrix(0.964428 -0.264347 -0.25339 -0.967364 24.093 31.2374)" stroke="#4C4CFF"/>
<ellipse cx="18.4769" cy="10.25" rx="1.09975" ry="0.75" transform="rotate(180 18.4769 10.25)" stroke="#4C4CFF"/>
<ellipse rx="1.10147" ry="0.748885" transform="matrix(0.964427 0.264349 -0.253389 0.967364 21.5618 7.51562)" stroke="#4C4CFF"/>
<ellipse rx="0.733173" ry="0.5625" transform="matrix(1 0 0 -1 19.5767 32.5625)" stroke="#4C4CFF"/>
<ellipse rx="1.10526" ry="0.746399" transform="matrix(0.881086 -0.472956 0.456421 0.889764 13.5594 9.18679)" stroke="#4C4CFF"/>
</g>
<ellipse rx="0.736837" ry="0.559799" transform="matrix(0.881086 0.472957 0.45642 -0.889764 14.616 31.2359)" stroke="#4C4CFF"/>
<ellipse rx="1.10147" ry="0.748885" transform="matrix(0.964427 0.264348 -0.25339 0.967364 25.9608 9.76562)" stroke="#4C4CFF"/>
<ellipse rx="0.734315" ry="0.561663" transform="matrix(0.964428 -0.264347 -0.25339 -0.967364 24.093 31.2374)" stroke="#4C4CFF"/>
<ellipse cx="18.4769" cy="10.25" rx="1.09975" ry="0.75" transform="rotate(180 18.4769 10.25)" stroke="#4C4CFF"/>
<ellipse rx="1.10147" ry="0.748885" transform="matrix(0.964427 0.264349 -0.253389 0.967364 21.5618 7.51562)" stroke="#4C4CFF"/>
<ellipse rx="0.733173" ry="0.5625" transform="matrix(1 0 0 -1 19.5767 32.5625)" stroke="#4C4CFF"/>
<ellipse rx="1.10526" ry="0.746399" transform="matrix(0.881086 -0.472956 0.456421 0.889764 13.5594 9.18679)" stroke="#4C4CFF"/>
<ellipse rx="0.736837" ry="0.559799" transform="matrix(0.881086 0.472957 0.45642 -0.889764 14.616 31.2359)" stroke="white" stroke-width="0.5"/>
<ellipse rx="1.10147" ry="0.748885" transform="matrix(0.964427 0.264348 -0.25339 0.967364 25.9608 9.76562)" stroke="white" stroke-width="0.5"/>
<ellipse rx="0.734315" ry="0.561663" transform="matrix(0.964428 -0.264347 -0.25339 -0.967364 24.093 31.2374)" stroke="white" stroke-width="0.5"/>
<ellipse cx="18.4769" cy="10.25" rx="1.09975" ry="0.75" transform="rotate(180 18.4769 10.25)" stroke="white" stroke-width="0.5"/>
<ellipse rx="1.10147" ry="0.748885" transform="matrix(0.964427 0.264349 -0.253389 0.967364 21.5618 7.51562)" stroke="white" stroke-width="0.5"/>
<ellipse rx="0.733173" ry="0.5625" transform="matrix(1 0 0 -1 19.5767 32.5625)" stroke="white" stroke-width="0.5"/>
<ellipse rx="1.10526" ry="0.746399" transform="matrix(0.881086 -0.472956 0.456421 0.889764 13.5594 9.18679)" stroke="white" stroke-width="0.5"/>
<defs>
<filter id="filter0_f" x="2.43463" y="0.5" width="33.7848" height="39" filterUnits="userSpaceOnUse" color-interpolation-filters="sRGB">
<feFlood flood-opacity="0" result="BackgroundImageFix"/>
<feBlend mode="normal" in="SourceGraphic" in2="BackgroundImageFix" result="shape"/>
<feGaussianBlur stdDeviation="2" result="effect1_foregroundBlur"/>
</filter>
<filter id="filter1_f" x="2.43463" y="0.5" width="33.7848" height="39" filterUnits="userSpaceOnUse" color-interpolation-filters="sRGB">
<feFlood flood-opacity="0" result="BackgroundImageFix"/>
<feBlend mode="normal" in="SourceGraphic" in2="BackgroundImageFix" result="shape"/>
<feGaussianBlur stdDeviation="2" result="effect1_foregroundBlur"/>
</filter>
<filter id="filter2_f" x="0.515259" y="15.125" width="38.0791" height="14.9965" filterUnits="userSpaceOnUse" color-interpolation-filters="sRGB">
<feFlood flood-opacity="0" result="BackgroundImageFix"/>
<feBlend mode="normal" in="SourceGraphic" in2="BackgroundImageFix" result="shape"/>
<feGaussianBlur stdDeviation="2" result="effect1_foregroundBlur"/>
</filter>
<filter id="filter3_f" x="0.515259" y="15.125" width="38.0791" height="14.9965" filterUnits="userSpaceOnUse" color-interpolation-filters="sRGB">
<feFlood flood-opacity="0" result="BackgroundImageFix"/>
<feBlend mode="normal" in="SourceGraphic" in2="BackgroundImageFix" result="shape"/>
<feGaussianBlur stdDeviation="2" result="effect1_foregroundBlur"/>
</filter>
<filter id="filter4_f" x="0.413208" y="11" width="38.3269" height="11.25" filterUnits="userSpaceOnUse" color-interpolation-filters="sRGB">
<feFlood flood-opacity="0" result="BackgroundImageFix"/>
<feBlend mode="normal" in="SourceGraphic" in2="BackgroundImageFix" result="shape"/>
<feGaussianBlur stdDeviation="2" result="effect1_foregroundBlur"/>
</filter>
<filter id="filter5_f" x="0.413208" y="11" width="38.3269" height="11.25" filterUnits="userSpaceOnUse" color-interpolation-filters="sRGB">
<feFlood flood-opacity="0" result="BackgroundImageFix"/>
<feBlend mode="normal" in="SourceGraphic" in2="BackgroundImageFix" result="shape"/>
<feGaussianBlur stdDeviation="2" result="effect1_foregroundBlur"/>
</filter>
<filter id="filter6_f" x="8.03107" y="2.23315" width="23.5081" height="35.3918" filterUnits="userSpaceOnUse" color-interpolation-filters="sRGB">
<feFlood flood-opacity="0" result="BackgroundImageFix"/>
<feBlend mode="normal" in="SourceGraphic" in2="BackgroundImageFix" result="shape"/>
<feGaussianBlur stdDeviation="2" result="effect1_foregroundBlur"/>
</filter>
<filter id="filter7_f" x="8.03107" y="2.23315" width="23.5081" height="35.3918" filterUnits="userSpaceOnUse" color-interpolation-filters="sRGB">
<feFlood flood-opacity="0" result="BackgroundImageFix"/>
<feBlend mode="normal" in="SourceGraphic" in2="BackgroundImageFix" result="shape"/>
<feGaussianBlur stdDeviation="2" result="effect1_foregroundBlur"/>
</filter>
</defs>
</svg>

<svg width="40" height="40" fill="none" xmlns="http://www.w3.org/2000/svg"><g filter="url(#a)" stroke="#4C4CFF" stroke-linecap="round" stroke-linejoin="round"><path d="M30.667 29.82c.508-.601.06-1.47-.727-1.482-7.057-.11-13.05.027-20.343.471-.785.048-1.194.936-.66 1.513C11.61 33.203 15.39 35 19.58 35c4.429 0 8.399-2.007 11.088-5.18zM7.073 12.16c-.402.67.17 1.454.946 1.36 8.1-.977 14.208-1.274 22.668-.77.783.046 1.308-.777.861-1.421C28.891 7.499 24.521 5 19.58 5c-5.29 0-9.926 2.865-12.506 7.16z"/></g><g filter="url(#b)" stroke="#4C4CFF" stroke-linecap="round" stroke-linejoin="round"><path d="M30.667 29.82c.508-.601.06-1.47-.727-1.482-7.057-.11-13.05.027-20.343.471-.785.048-1.194.936-.66 1.513C11.61 33.203 15.39 35 19.58 35c4.429 0 8.399-2.007 11.088-5.18zM7.073 12.16c-.402.67.17 1.454.946 1.36 8.1-.977 14.208-1.274 22.668-.77.783.046 1.308-.777.861-1.421C28.891 7.499 24.521 5 19.58 5c-5.29 0-9.926 2.865-12.506 7.16z"/></g><path d="M30.667 29.82c.508-.601.06-1.47-.727-1.482-7.057-.11-13.05.027-20.343.471-.785.048-1.194.936-.66 1.513C11.61 33.203 15.39 35 19.58 35c4.429 0 8.399-2.007 11.088-5.18zM7.073 12.16c-.402.67.17 1.454.946 1.36 8.1-.977 14.208-1.274 22.668-.77.783.046 1.308-.777.861-1.421C28.891 7.499 24.521 5 19.58 5c-5.29 0-9.926 2.865-12.506 7.16z" stroke="#4C4CFF" stroke-linecap="round" stroke-linejoin="round"/><path d="M30.667 29.82c.508-.601.06-1.47-.727-1.482-7.057-.11-13.05.027-20.343.471-.785.048-1.194.936-.66 1.513C11.61 33.203 15.39 35 19.58 35c4.429 0 8.399-2.007 11.088-5.18zM7.073 12.16c-.402.67.17 1.454.946 1.36 8.1-.977 14.208-1.274 22.668-.77.783.046 1.308-.777.861-1.421C28.891 7.499 24.521 5 19.58 5c-5.29 0-9.926 2.865-12.506 7.16z" stroke="#fff" stroke-width=".5" stroke-linecap="round" stroke-linejoin="round"/><g filter="url(#c)"><path d="M34.074 22.313c.158-1.047-.657-1.949-1.712-2.034-9.046-.729-16.232-.847-25.563-.362-1.059.055-1.9.935-1.77 1.987.103.835.272 1.648.504 2.434.238.812 1.026 1.312 1.872 1.282 8.855-.307 15.8-.33 24.393-.1.846.023 1.63-.483 1.862-1.296.177-.622.316-1.26.414-1.912z" stroke="#E33CD5" stroke-linecap="round" stroke-linejoin="round"/></g><g filter="url(#d)"><path d="M34.074 22.313c.158-1.047-.657-1.949-1.712-2.034-9.046-.729-16.232-.847-25.563-.362-1.059.055-1.9.935-1.77 1.987.103.835.272 1.648.504 2.434.238.812 1.026 1.312 1.872 1.282 8.855-.307 15.8-.33 24.393-.1.846.023 1.63-.483 1.862-1.296.177-.622.316-1.26.414-1.912z" stroke="#E33CD5" stroke-linecap="round" stroke-linejoin="round"/></g><path d="M34.074 22.313c.158-1.047-.657-1.949-1.712-2.034-9.046-.729-16.232-.847-25.563-.362-1.059.055-1.9.935-1.77 1.987.103.835.272 1.648.504 2.434.238.812 1.026 1.312 1.872 1.282 8.855-.307 15.8-.33 24.393-.1.846.023 1.63-.483 1.862-1.296.177-.622.316-1.26.414-1.912z" stroke="#E33CD5" stroke-linecap="round" stroke-linejoin="round"/><path d="M34.074 22.313c.158-1.047-.657-1.949-1.712-2.034-9.046-.729-16.232-.847-25.563-.362-1.059.055-1.9.935-1.77 1.987.103.835.272 1.648.504 2.434.238.812 1.026 1.312 1.872 1.282 8.855-.307 15.8-.33 24.393-.1.846.023 1.63-.483 1.862-1.296.177-.622.316-1.26.414-1.912z" stroke="#fff" stroke-width=".5" stroke-linecap="round" stroke-linejoin="round"/><g filter="url(#e)"><path d="M4.913 16.625c1.955-1.5 3.91-1.5 5.866 0 1.955 1.5 3.91 1.5 5.865 0s3.91-1.5 5.865 0 3.91 1.5 5.866 0c1.955-1.5 3.91-1.5 5.865 0" stroke="#0CC" stroke-linecap="round" stroke-linejoin="round"/></g><g filter="url(#f)"><path d="M4.913 16.625c1.955-1.5 3.91-1.5 5.866 0 1.955 1.5 3.91 1.5 5.865 0s3.91-1.5 5.865 0 3.91 1.5 5.866 0c1.955-1.5 3.91-1.5 5.865 0" stroke="#0CC" stroke-linecap="round" stroke-linejoin="round"/></g><path d="M4.913 16.625c1.955-1.5 3.91-1.5 5.866 0 1.955 1.5 3.91 1.5 5.865 0s3.91-1.5 5.865 0 3.91 1.5 5.866 0c1.955-1.5 3.91-1.5 5.865 0" stroke="#0CC" stroke-linecap="round" stroke-linejoin="round"/><path d="M4.913 16.625c1.955-1.5 3.91-1.5 5.866 0 1.955 1.5 3.91 1.5 5.865 0s3.91-1.5 5.865 0 3.91 1.5 5.866 0c1.955-1.5 3.91-1.5 5.865 0" stroke="#fff" stroke-width=".5" stroke-linecap="round" stroke-linejoin="round"/><g filter="url(#g)" stroke="#4C4CFF"><ellipse rx=".737" ry=".56" transform="matrix(.88109 .47296 .45642 -.88976 14.616 31.236)"/><ellipse rx="1.101" ry=".749" transform="matrix(.96443 .26435 -.25339 .96736 25.96 9.766)"/><ellipse rx=".734" ry=".562" transform="matrix(.96443 -.26435 -.25339 -.96736 24.093 31.237)"/><ellipse cx="18.477" cy="10.25" rx="1.1" ry=".75" transform="rotate(180 18.477 10.25)"/><ellipse rx="1.101" ry=".749" transform="matrix(.96443 .26435 -.25339 .96736 21.562 7.516)"/><ellipse rx=".733" ry=".563" transform="matrix(1 0 0 -1 19.577 32.563)"/><ellipse rx="1.105" ry=".746" transform="matrix(.88109 -.47296 .45642 .88976 13.56 9.187)"/></g><g filter="url(#h)" stroke="#4C4CFF"><ellipse rx=".737" ry=".56" transform="matrix(.88109 .47296 .45642 -.88976 14.616 31.236)"/><ellipse rx="1.101" ry=".749" transform="matrix(.96443 .26435 -.25339 .96736 25.96 9.766)"/><ellipse rx=".734" ry=".562" transform="matrix(.96443 -.26435 -.25339 -.96736 24.093 31.237)"/><ellipse cx="18.477" cy="10.25" rx="1.1" ry=".75" transform="rotate(180 18.477 10.25)"/><ellipse rx="1.101" ry=".749" transform="matrix(.96443 .26435 -.25339 .96736 21.562 7.516)"/><ellipse rx=".733" ry=".563" transform="matrix(1 0 0 -1 19.577 32.563)"/><ellipse rx="1.105" ry=".746" transform="matrix(.88109 -.47296 .45642 .88976 13.56 9.187)"/></g><ellipse rx=".737" ry=".56" transform="matrix(.88109 .47296 .45642 -.88976 14.616 31.236)" stroke="#4C4CFF"/><ellipse rx="1.101" ry=".749" transform="matrix(.96443 .26435 -.25339 .96736 25.96 9.766)" stroke="#4C4CFF"/><ellipse rx=".734" ry=".562" transform="matrix(.96443 -.26435 -.25339 -.96736 24.093 31.237)" stroke="#4C4CFF"/><ellipse cx="18.477" cy="10.25" rx="1.1" ry=".75" transform="rotate(180 18.477 10.25)" stroke="#4C4CFF"/><ellipse rx="1.101" ry=".749" transform="matrix(.96443 .26435 -.25339 .96736 21.562 7.516)" stroke="#4C4CFF"/><ellipse rx=".733" ry=".563" transform="matrix(1 0 0 -1 19.577 32.563)" stroke="#4C4CFF"/><ellipse rx="1.105" ry=".746" transform="matrix(.88109 -.47296 .45642 .88976 13.56 9.187)" stroke="#4C4CFF"/><ellipse rx=".737" ry=".56" transform="matrix(.88109 .47296 .45642 -.88976 14.616 31.236)" stroke="#fff" stroke-width=".5"/><ellipse rx="1.101" ry=".749" transform="matrix(.96443 .26435 -.25339 .96736 25.96 9.766)" stroke="#fff" stroke-width=".5"/><ellipse rx=".734" ry=".562" transform="matrix(.96443 -.26435 -.25339 -.96736 24.093 31.237)" stroke="#fff" stroke-width=".5"/><ellipse cx="18.477" cy="10.25" rx="1.1" ry=".75" transform="rotate(180 18.477 10.25)" stroke="#fff" stroke-width=".5"/><ellipse rx="1.101" ry=".749" transform="matrix(.96443 .26435 -.25339 .96736 21.562 7.516)" stroke="#fff" stroke-width=".5"/><ellipse rx=".733" ry=".563" transform="matrix(1 0 0 -1 19.577 32.563)" stroke="#fff" stroke-width=".5"/><ellipse rx="1.105" ry=".746" transform="matrix(.88109 -.47296 .45642 .88976 13.56 9.187)" stroke="#fff" stroke-width=".5"/><defs><filter id="a" x="2.435" y=".5" width="33.785" height="39" filterUnits="userSpaceOnUse" color-interpolation-filters="sRGB"><feFlood flood-opacity="0" result="BackgroundImageFix"/><feBlend in="SourceGraphic" in2="BackgroundImageFix" result="shape"/><feGaussianBlur stdDeviation="2" result="effect1_foregroundBlur"/></filter><filter id="b" x="2.435" y=".5" width="33.785" height="39" filterUnits="userSpaceOnUse" color-interpolation-filters="sRGB"><feFlood flood-opacity="0" result="BackgroundImageFix"/><feBlend in="SourceGraphic" in2="BackgroundImageFix" result="shape"/><feGaussianBlur stdDeviation="2" result="effect1_foregroundBlur"/></filter><filter id="c" x=".515" y="15.125" width="38.079" height="14.996" filterUnits="userSpaceOnUse" color-interpolation-filters="sRGB"><feFlood flood-opacity="0" result="BackgroundImageFix"/><feBlend in="SourceGraphic" in2="BackgroundImageFix" result="shape"/><feGaussianBlur stdDeviation="2" result="effect1_foregroundBlur"/></filter><filter id="d" x=".515" y="15.125" width="38.079" height="14.996" filterUnits="userSpaceOnUse" color-interpolation-filters="sRGB"><feFlood flood-opacity="0" result="BackgroundImageFix"/><feBlend in="SourceGraphic" in2="BackgroundImageFix" result="shape"/><feGaussianBlur stdDeviation="2" result="effect1_foregroundBlur"/></filter><filter id="e" x=".413" y="11" width="38.327" height="11.25" filterUnits="userSpaceOnUse" color-interpolation-filters="sRGB"><feFlood flood-opacity="0" result="BackgroundImageFix"/><feBlend in="SourceGraphic" in2="BackgroundImageFix" result="shape"/><feGaussianBlur stdDeviation="2" result="effect1_foregroundBlur"/></filter><filter id="f" x=".413" y="11" width="38.327" height="11.25" filterUnits="userSpaceOnUse" color-interpolation-filters="sRGB"><feFlood flood-opacity="0" result="BackgroundImageFix"/><feBlend in="SourceGraphic" in2="BackgroundImageFix" result="shape"/><feGaussianBlur stdDeviation="2" result="effect1_foregroundBlur"/></filter><filter id="g" x="8.031" y="2.233" width="23.508" height="35.392" filterUnits="userSpaceOnUse" color-interpolation-filters="sRGB"><feFlood flood-opacity="0" result="BackgroundImageFix"/><feBlend in="SourceGraphic" in2="BackgroundImageFix" result="shape"/><feGaussianBlur stdDeviation="2" result="effect1_foregroundBlur"/></filter><filter id="h" x="8.031" y="2.233" width="23.508" height="35.392" filterUnits="userSpaceOnUse" color-interpolation-filters="sRGB"><feFlood flood-opacity="0" result="BackgroundImageFix"/><feBlend in="SourceGraphic" in2="BackgroundImageFix" result="shape"/><feGaussianBlur stdDeviation="2" result="effect1_foregroundBlur"/></filter></defs></svg>
